X: 201
T: Xiao shanyang (1)
L: 1/16
M: 3/4
K: C
C2 A,2 C2 D C C D E2 [I:setbarnb 1]| 
[M:2/4]D C-C4C2 | 
C2> D2 E3 G | 
C2 D E D2 C2 | 
D C D2 D2 C2 | 
C D C2 D C C2 | 
C2> D2 E3 G | 
D E D2 E D E2 | 
D4C4 |]

@@@ Tune index: 8869
